!!!COM: Bach, Johann Sebastian
!!!OTL: Sinfonia No. 12; in A major; BWV 798
!! Three-part sinfonia
!! Bach-Gesellschaft edition, pp.36-37
!! Performance duration: 1:22; performance tempo: 90.7 quarter-notes per minute.
!! (Andras Schiff, piano, "Two-Part Inventions BWV 772a-786; Three-part
!! Inventions BWV 787-801" Decca 411 974-2)
**kern	**kern	**kern
*staff2	*staff1	*staff1
*M4/4	*M4/4	*M4/4
*MM90.7	*MM90.7	*MM90.7
*A:	*A:	*A:
=1	=1	=1
8A	1r	8a
8r	.	16g#
.	.	16a
8G#	.	8b
8r	.	16a
.	.	16g#
8F#	.	[4a
8r	.	.
8C#	.	16a]
.	.	16b
8r	.	16g#
.	.	16a
=2	=2	=2
8D	1r	16b
.	.	16e
8r	.	16cc#
.	.	16e
8E	.	16dd
.	.	16e
8r	.	8ee
8AA	.	16cc#
.	.	16b
8A	.	16a
.	.	16b
8G#	.	16cc#
.	.	16dd#
8F#	.	16ee
.	.	16ff#
=3	=3	=3
8E	8e	16gg#
.	.	16aa
8r	16d#	[8bb
.	16e	.
8d#	8f#	16bb]
.	.	16aa
8r	16e	16gg#
.	16d#	16ff#
8c#	[4e	16ee
.	.	16dd#
8r	.	16cc#
.	.	16b
8G#	16e]	[4ee
.	16f#	.
8r	16d#	.
.	16e	.
=4	=4	=4
8A	16f#	4ee]
.	16B	.
8r	16g#	.
.	16B	.
8B	16a	4dd#
.	16B	.
8r	8b	.
8e	16g#	8ee
.	16a	.
8r	16b	16ddn
.	16a	16cc#
4r	16g#	16dd
.	16f#	16ee
.	16e	16ff#
.	16d	16gg#
=5	=5	=5
8A	16c#	8.aa
.	16cc#	.
16G#	[8ff#	.
16A	.	16aa
8B	16ff#]	8.gg#
.	16dd#	.
16A	[8ee	.
16G#	.	16gg#
[4A	16ee]	8.ff#
.	16cc#	.
.	[8ddn	.
.	.	16ff#
16A]	16dd]	8.ee
16B	16b	.
16G#	8cc#	.
16A	.	16ee
=6	=6	=6
16B	8g#	8dd
16E	.	.
16c#	4a	8cc#
16E	.	.
16d	.	4b
16E	.	.
8e	8g#	.
16c#	4.a	8a
16B	.	.
16A	.	8cc#
16B	.	.
16c#	.	[4ff#
16d#	.	.
16e	8a	.
16f#	.	.
=7	=7	=7
16B	4.g#	8ff#]
16A	.	.
16G#	.	8b
16A	.	.
16B	.	[4ee
16c#	.	.
16d#	8g#	.
16e	.	.
16A	2f#	8ee]
16G#	.	.
16F#	.	16dd#
16G#	.	16ee
16A	.	8ff#
16G#	.	.
16A	.	16ee
16B	.	16dd#
=8	=8	=8
8G#	16r	[4ee
.	16dd#	.
16A	16cc#	.
16B	16b	.
[4c#	16a	16ee]
.	16g#	16ff#
.	16f#	16dd#
.	16e	16ee
16c#]	8d#	16ff#
16B	.	16b
16A	4e	16gg#
16G#	.	16b
8F#	.	16aa
.	.	16b
8B	8d#	8bb
=9	=9	=9
4E	4e	16gg#
.	.	16aa
.	.	16bb
.	.	16aa
16r	4r	16gg#
16A	.	16ff#
16G#	.	16ee
16F#	.	16ddn
16E#	8r	[2cc#
16C#	.	.
16F#	16g#	.
16C#	16a	.
16G#	8b	.
16C#	.	.
16E#	16a	.
16C#	16g#	.
=10	=10	=10
16F#	[2a	8cc#]
16C#	.	.
16G#	.	16cc#
16C#	.	16dd
16F#	.	8ee
16C#	.	.
16E	.	16dd
16C#	.	16cc#
16D#	8a]	[2b
16BB	.	.
16E	16f#	.
16BB	16g#	.
16F#	8a	.
16BB	.	.
16D#	16g#	.
16BB	16f#	.
=11	=11	=11
16E	[2g#	8b]
16BB	.	.
16F#	.	16b
16BB	.	16cc#
16E	.	8dd
16BB	.	.
16D	.	16cc#
16BB	.	16b
16C#	8g#]	[2a
16AA	.	.
16D	16e#	.
16AA	16f#	.
16En	8g#	.
16AA	.	.
16C#	16f#	.
16AA	16e#	.
=12	=12	=12
16D	[2f#	8a]
16AA	.	.
16E	.	16a
16AA	.	16b
16D	.	8cc#
16AA	.	.
16C#	.	16b
16AA	.	16a
16BB#	8f#]	[2g#
16GG#	.	.
16C#	16d#	.
16GG#	16e#	.
16D#	8f#	.
16GG#	.	.
16BB#	16e#	.
16GG#	16d#	.
=13	=13	=13
[1C#	8e#	8g#]
.	16e#	16g#
.	16f#	16a
.	8g#	8b
.	16f#	16a
.	16e#	16g#
.	4f#	8a
.	.	16a#
.	.	16b#
.	4en	8cc#
.	.	16b#
.	.	16a#
=14	=14	=14
2C#]	4d#	8b#
.	.	16b#
.	.	16cc#
.	2f#	8dd#
.	.	16cc#
.	.	16b#
16r	.	8cc#
16dn	.	.
16c#	.	16g#
16B	.	16a
16c#	4e#	8bn
16A	.	.
16B	.	16a
16c#	.	16g#
=15	=15	=15
8F#	16f#	16a
.	16r	16f#
16E#	8r	16g#
16F#	.	16a
8G#	4r	16b
.	.	16cc#
16F#	.	16dd
16E#	.	16een
[4F#	16r	8.dd
.	16cc#	.
.	[8b	.
.	.	16dd
16F#]	16b]	8.cc#
16G#	16b	.
16E#	8a	.
16F#	.	16cc#
=16	=16	=16
16G#	8e#	8b
16C#	.	.
16A	4f#	8a
16C#	.	.
16B	.	4g#
16C#	.	.
16c#	8e#	.
16B	.	.
16A	4.f#	8f#
16B	.	.
16c#	.	8cc#
16B	.	.
16A	.	[4ff#
16G#	.	.
16F#	8a	.
16E	.	.
=17	=17	=17
16B	[4dd	8ff#]
16c#	.	.
16d	.	8b
16c#	.	.
16B	8dd]	[4gg#
16A	.	.
16G#	8b	.
16F#	.	.
16c#	[4ee	8gg#]
16d	.	.
16e	.	8cc#
16d	.	.
16c#	8ee]	[4aa
16B	.	.
16A	8cc#	.
16G#	.	.
=18	=18	=18
16d#	[2ff#	8aa]
16e	.	.
16f#	.	8dd#
16e	.	.
16d#	.	8bb
16c#	.	.
16B	.	8aa
16A	.	.
[2e	8ff#]	8gg#
.	16b	16gg#
.	16cc#	16aa
.	8ddn	8bb
.	16cc#	16aa
.	16b	16gg#
=19	=19	=19
1e_	8cc#	4aa
.	16cc#	.
.	16dd#	.
.	8ee	4gg#
.	16dd#	.
.	16cc#	.
.	8dd#	4ff#
.	16dd#	.
.	16ee	.
.	8ff#	[4aa
.	16ee	.
.	16dd#	.
=20	=20	=20
16e]	2ee	8aa]
16c#	.	.
16B	.	16gg#
16A	.	16aa
16G#	.	16bb
16F#	.	16aa
16E	.	16gg#
16D	.	16ff#
16C#	2r	16ee
16A	.	16dd
16D	.	16cc#
16A	.	16b
16E	.	16a
16A	.	16cc#
16C#	.	16ee
16A	.	16ggn
=21	=21	=21
16D	8r	[2ff#
16A	.	.
16E	16a	.
16A	16b	.
16D	8cc#	.
16A	.	.
16C#	16b	.
16A	16a	.
16BB	[2g#	8ff#]
16G#	.	.
16C#	.	16dd
16G#	.	16ee
16D	.	8ff#
16G#	.	.
16BB	.	16ee
16G#	.	16dd
=22	=22	=22
16C#	8g#]	[2ee
16G#	.	.
16D	16g#	.
16G#	16a	.
16C#	8b	.
16G#	.	.
16BB	16a	.
16G#	16g#	.
16AA#	[2f#	8ee]
16F#	.	.
16BB	.	16cc#
16F#	.	16dd
16C#	.	8ee
16F#	.	.
16AA#	.	16dd
16F#	.	16cc#
=23	=23	=23
16BB	8f#]	[2dd
16F#	.	.
16C#	16f#	.
16F#	16g#	.
16BB	8a	.
16F#	.	.
16AA	16g#	.
16F#	16f#	.
16GG#	[2e	8dd]
16E	.	.
16EE	.	16b
16E	.	16cc#
16FF#	.	8dd
16E	.	.
16GG#	.	16cc#
16E	.	16b
=24	=24	=24
8AA	8e]	16cc#
.	.	16a
16GG#	16r	[8ff#
16AA	16a	.
8BB	8.g#	16ff#]
.	.	16dd#
16AA	.	[8ee
16GG#	16g#	.
[4AA	8.f#	16ee]
.	.	16cc#
.	.	[8ddn
.	16f#	.
16AA]	8.e	16dd]
16BB	.	16b
16GG#	.	8cc#
16AA	16e	.
=25	=25	=25
16BB	8d	8g#
16EE	.	.
16C#	8c#	4a
16EE	.	.
16D	4B	.
16EE	.	.
8E	.	8g#
8C#	16e	8a
.	16c#	.
4F#	[8d	16g#
.	.	16a
.	16d]	8b
.	16B	.
8E#	[8c#	16a
.	.	16g#
=26	=26	=26
4.F#	16c#]	[4a
.	16A	.
.	16B	.
.	16G#	.
.	[4A	16a]
.	.	16b
8E	.	16g#
.	.	16a
8D	16A]	16b
.	16G#	16e
8C#	4A	16cc#
.	.	16e
8BB	.	16dd
.	.	16e
8E	8G#	8ee
=27	=27	=27
4AA	8A	16cc#
.	.	16b
.	8c#	16a
.	.	16b
8r	[4f#	16cc#
.	.	16dd
8A	.	16ee
.	.	16ff#
4.G#	8f#]	16b
.	.	16a
.	8B	16g#
.	.	16a
.	[4e	16b
.	.	16cc#
8G#	.	16dd
.	.	16ee
=28	=28	=28
4.F#	8e]	16a
.	.	16g#
.	8A	16f#
.	.	16g#
.	[4d	16a
.	.	16b
8F#	.	16cc#
.	.	16dd
[2E	8d]	16g#
.	.	16b
.	16B	16g#
.	16c#	16e
.	8d	[4ee
.	16c#	.
.	16B	.
=29	=29	=29
1E_	8c#	16ee]
.	.	16ee
.	16A	16cc#
.	16B	16a
.	8c#	[4aa
.	16B	.
.	16A	.
.	8B	16aa]
.	.	16b
.	16G#	16dd
.	16A	16ff#
.	8B	[4gg#
.	16A	.
.	16G#	.
=30	=30	=30
2E_	8A	16gg#]
.	.	16a
.	16F#	16cc#
.	16G#	16ee
.	8A	[4ff#
.	16G#	.
.	16F#	.
16E]	8G#	16ff#]
16E	.	16ee
16G#	8r	16dd#
16B	.	16ee
16cn	8a	8ff#
16G#	.	.
16A	8r	8r
16D#	.	.
=31	=31	=31
8E	8.a	8.cc#
8r	.	.
.	16b	16dd
8EE	4g#	8.b
8r	.	.
.	.	16a
2AA;	2a;	2a;
====	====	====
*-	*-	*-
